Adwaita++/actions/16/package-downgrade.svg

<svg fill="none" height="16" viewBox="0 0 16 16" width="16" xmlns="http://www.w3.org/2000/svg" xmlns:xlink="http://www.w3.org/1999/xlink">
  <defs>
    <clipPath id="clip0">
      <path d="m0 0h16v16h-16z"/>
    </clipPath>
  </defs>
  <g clip-path="url(#clip0)">
    <path clip-rule="evenodd" d="m4.78746.00449076c.17431-.00115356.35379-.00234123.53871-.00449076h.00391 3.33594 2.00388.0039c.1844.00212736.3633.00330279.5371.00444457 1.4079.00924893 2.4797.01629023 3.3731.50922743.5018.27688.8976.745198 1.1172 1.330078.2196.58489.2988 1.27944.2988 2.15625v8c0 .8768-.0808 1.5714-.3008 2.1562-.2195.5849-.6153 1.0533-1.1172 1.3301-.893.4928-1.9628.4999-3.3696.5092-.1742.0012-.3537.0024-.5386.0045h-.0039-5.33982-.00391c-.18455-.0021-.36366-.0033-.53765-.0045-1.40759-.0093-2.47925-.0163-3.3725-.5092-.501834-.2768-.897632-.7452-1.117192-1.3301-.2195799-.5848-.298828-1.2794-.298828-2.1562v-8c0-.87681.0792681-1.57137.298828-2.15625.21956-.58488.615358-1.053218 1.117192-1.330078.89302-.4927802 1.96437-.4998699 3.37144-.50918124zm4.03895 2.99550924h-1.67583v6.59213l-1.80706-2.09608-1.34352.86626 3.47054 4.02559.51795.6121.49336-.5717.00101.0006 3.51714-4.06659-1.3435-.86626-1.83009 2.12278z" fill="#fb7c38" fill-rule="evenodd"/>
  </g>
</svg>

<svg xmlns="http://www.w3.org/2000/svg" fill="none" width="16" height="16" viewBox="0 0 16 16">
 <g clip-path="url(#clip0)">
  <path fill="#FB7C38" fill-rule="evenodd" d="M4.78746 0.00449076C4.96177 0.0033372 5.14125 0.00214953 5.32617 0H5.33008H8.66602H10.6699H10.6738C10.8582 0.00212736 11.0371 0.00330279 11.2109 0.00444457C12.6188 0.0136935 13.6906 0.0207348 14.584 0.513672C15.0858 0.790552 15.4816 1.25887 15.7012 1.84375C15.9208 2.42864 16 3.12319 16 4V12C16 12.8768 15.9192 13.5714 15.6992 14.1562C15.4797 14.7411 15.0839 15.2095 14.582 15.4863C13.689 15.9791 12.6192 15.9862 11.2124 15.9955C11.0382 15.9967 10.8587 15.9979 10.6738 16H10.6699H5.33008H5.32617C5.14162 15.9979 4.96251 15.9967 4.78852 15.9955C3.38093 15.9862 2.30927 15.9792 1.41602 15.4863C0.914186 15.2095 0.518388 14.7411 0.298828 14.1562C0.0792481 13.5714 0 12.8768 0 12V4C0 3.12319 0.0792681 2.42863 0.298828 1.84375C0.518388 1.25887 0.914186 0.790532 1.41602 0.513672C2.30904 0.0208918 3.38039 0.0138021 4.78746 0.00449076ZM8.82641 3H7.15058V9.59213L5.34352 7.49605L4 8.36231L7.47054 12.3879L7.98849 13L8.48185 12.4283L8.48286 12.4289L12 8.36231L10.6565 7.49605L8.82641 9.61883V3Z" clip-rule="evenodd"/>
 </g>
 <defs>
  <clipPath id="clip0">
   <rect fill="#fff" width="16" height="16"/>
  </clipPath>
 </defs>
</svg>
